X: 38113
T: Spórt
R: jig
M: 6/8
K: Dmajor
AdF ~A3|GBE ~G3|AdF ~A3|G2G cde|
AdF ~A3|GBE ~G3|d2d AFA|GEA D3:|
c2c dcd|ecA A2g|f2f ged|c/d/ec A2g|
f2f gfg|gaf d2e|fdA AFA|GEA D3:|
A2G AEE|A2G EDD|A2A cde|dcA GEG|
A2G AEE|A2G EDD|d2d AFA|GEA D3:|

